X: 21422
M: 6/8
L: 1/8
K: D
V: 1 name="2"
[|\
a |\
aga fef | Adf a2f | a2g e2a | (f3 d2)a |\
aga fef | Adf a2f | a2g e2f | d3 "^D.C."z3 |]


